!!!!SEGMENT: pl-cz--ii-152--002_maader-ludwik--salve-regina.krn
!!!cenid: 17xx:959
!!!COM: Maader, Ludwik
!!!COM-rismid: pe30020328
!!!CDT: <1794->1798
!!!CNT:
!!!OTL: Salve Regina
!!!PDT: 1784
!!!AGN: Sacred
!!!SMS-siglum: PL-CZ
!!!SMS-shelfmark: II-152
!!!SMS-shelfwork: 002 W
!!!SMS-variant:
!!!SMS-altvar:
!!!NIFC-rismid: 300000761
!!!URL-scan: http://repozytorium.nifc.pl/skany/pl-cz-nut--ii-152
!!!ONB-nifc: UWAGA: w okładce fragment innego utworu. Uwaga: Litaniae (Kyrie) i Salve Regina to osobne utwory
**kern	**dynam	**fba	**kern	**dynam	**kern	**dynam	**kern	**text	**kern	**text	**text	**kern	**text	**kern	**text	**text	**kern	**kern
*	*	*	*group3	*	*group3	*	*group2	*	*group2	*	*	*group2	*	*group2	*	*	*group1	*group1
*part9	*part9	*part9	*part8	*part8	*part7	*part7	*part6	*part6	*part5	*part5	*part5	*part4	*part4	*part3	*part3	*part3	*part2	*part1
*staff9	*	*	*staff8	*	*staff7	*	*staff6	*staff6	*staff5	*staff5	*staff5	*staff4	*staff4	*staff3	*staff3	*staff3	*staff2	*staff1
*Iorgan	*	*	*Ivioln	*	*Ivioln	*	*Iempty	*	*Itenor	*	*	*Ialto	*	*Ivox	*	*	*Iempty	*Iempty
*I"Organo.	*	*	*I"Violino IIdo.	*	*I"Violino Imo.	*	*I"Baſso	*	*I"Tenore	*	*	*I"Alto	*	*I"Canto	*	*	*I"Clarino IIdo in d.	*I"Clarino Imo in d.
*I'org	*	*	*I'vl 2	*	*I'vl 1	*	*I'B	*	*I'T	*	*	*I'A	*	*I'S	*	*	*I'clno 2 in D	*I'clno 1 in D
*clefF4	*	*	*clefG2	*	*clefG2	*	*clefF4	*	*clefC4	*	*	*clefC3	*	*clefC1	*	*	*clefG2	*clefG2
*	*	*	*	*	*	*	*	*	*	*	*	*	*	*	*	*	*ITrd-1c-2	*ITrd-1c-2
*k[f#c#]	*	*	*k[f#c#]	*	*k[f#c#]	*	*k[f#c#]	*	*k[f#c#]	*	*	*k[f#c#]	*	*k[f#c#]	*	*	*k[f#c#]	*k[f#c#]
*D:	*	*	*D:	*	*D:	*	*D:	*	*D:	*	*	*D:	*	*D:	*	*	*D:	*D:
*M4/4	*	*	*M4/4	*	*M4/4	*	*M4/4	*	*M4/4	*	*	*M4/4	*	*M4/4	*	*	*M4/4	*M4/4
*met(c)	*	*	*met(c)	*	*met(c)	*	*met(c)	*	*met(c)	*	*	*met(c)	*	*met(c)	*	*	*met(c)	*met(c)
*all\left or middle	*	*	*all\left or middle	*	*all\left or middle	*	*all\left or middle	*	*all\left or middle	*	*	*all\left or middle	*	*all\left or middle	*	*	*all\left or middle	*all\left or middle
*2\right	*	*	*2\right	*	*2\right	*	*2\right	*	*2\right	*	*	*2\right	*	*2\right	*	*	*2\right	*2\right
=1	=1	=1	=1	=1	=1	=1	=1	=1	=1	=1	=1	=1	=1	=1	=1	=1	=1	=1
!LO:TX:i:t=And&colon;	!	!	!LO:TX:i:t=Andante	!	!LO:TX:i:t=Andante	!	!LO:TX:i:t=Andante.	!	!LO:TX:i:t=Andante	!	!	!LO:TX:i:t=Andante	!	!LO:TX:i:t=andante.	!	!	!LO:TX:i:t=Andante	!LO:TX:i:t=Andante.
!LO:TX:t=P:problem:kolejność znaków:C#F#	!	!	!LO:TX:t=P:problem:kolejność znaków:cc#ff#	!	!LO:TX:t=P:problem:kolejność znaków:cc#ff#	!	!LO:TX:t=P:problem:kolejność znaków:C#F#	!	!	!	!	!LO:TX:t=P:problem:kolejność znaków:c#f#	!	!	!	!	!	!
4r	.	.	2f#/	.	2dd\	.	4r	.	2A\	Sal-	.	2f#\	Sal-	2dd\	Sal-	.	2f#/	2dd\
4D\	.	.	.	.	.	.	4D\	Sal-	.	.	.	.	.	.	.	.	.	.
4F#\	.	.	4f#/	.	4dd\	.	4F#\	-ve	4A\	-ve	.	4f#\	-ve	4dd\	-ve	.	2f#/	2dd\
4D\	.	.	4f#/	.	4dd\	.	4D\	Re-	4A\	Re-	.	4f#\	Re-	4dd\	Re-	.	.	.
=2	=2	=2	=2	=2	=2	=2	=2	=2	=2	=2	=2	=2	=2	=2	=2	=2	=2	=2
2A\	.	6 4	4f#/	.	4dd\	.	2A\	-gi-	2A\	-gi-	.	4f#\	-gi-	4dd\	-gi-	.	2a/	2ee\
.	.	5 3	4e/	.	4cc#\	.	.	.	.	.	.	4e\	.	4cc#\	.	.	.	.
2AA/	.	.	2e/	.	2cc#\	.	2AA/	-na	2A\	-na	.	2e\	-na	2cc#\	-na	.	2a/	2ee\
=3	=3	=3	=3	=3	=3	=3	=3	=3	=3	=3	=3	=3	=3	=3	=3	=3	=3	=3
4r	.	.	2ee\	.	2gg\	.	4AA/	Ma-	4e\	Ma-	.	4a\	Ma-	4gg\	Ma-	.	2a/	2ee\
4AA/	.	7	.	.	.	.	8AA/	-ter	8e\	-ter	.	8a\	-ter	8gg\	-ter	.	.	.
.	.	.	.	.	.	.	8AA/	mi-	8e\	mi-	.	8a\	mi-	8gg\	mi-	.	.	.
4C#/	.	.	4ee\	.	4gg\	.	4C#/	-se-	4e\	-se-	.	4a\	-se-	4gg\	-se-	.	2a/	2ee\
4AA/	.	.	4ee\	.	4gg\	.	4AA/	-ri-	4e\	-ri-	.	4a\	-ri-	4gg\	-ri-	.	.	.
=4	=4	=4	=4	=4	=4	=4	=4	=4	=4	=4	=4	=4	=4	=4	=4	=4	=4	=4
2D\	.	9	4ee\	.	4gg\	.	4.D/	-cor-	4e\	-cor-	.	4a\	-cor-	4gg\	-cor-	.	4a/	4ee\
.	.	8	4dd\	.	4ff#\	.	.	.	4d\	-di-	.	4a\	-di-	4ff#\	-di-	.	4f#/	4dd\
.	.	.	.	.	.	.	8D/	-di-	.	.	.	.	.	.	.	.	.	.
2DD/	.	.	2dd\	.	2ff#\	.	2D/	-ae	2d\	-ae	.	2a\	-ae	2ff#\	-ae	.	2f#/	2dd\
=5	=5	=5	=5	=5	=5	=5	=5	=5	=5	=5	=5	=5	=5	=5	=5	=5	=5	=5
!	!	!	!	!	!	!	!	!	!LO:LB:g=original	!	!	!	!	!	!	!	!	!
4r	.	.	2ff#\	.	2aa\	.	2d\	Vi-	2d\	Vi-	.	2f#\	Vi-	2aa\	Vi-	.	4d/	4dd\
4D\	.	.	.	.	.	.	.	.	.	.	.	.	.	.	.	.	4r	4r
4d\	.	.	4dd\	.	4ff#\	.	4d\	-ta	4d\	-ta	.	4a\	-ta	4ff#\	-ta	.	2r	2r
4F#\	.	.	4aa\	.	4dd\	.	4F#\	dul-	4A\	dul-	.	4f#\	dul-	4dd\	dul-	.	.	.
=6	=6	=6	=6	=6	=6	=6	=6	=6	=6	=6	=6	=6	=6	=6	=6	=6	=6	=6
!LO:LB:g=original	!	!	!	!	!	!	!	!	!	!	!	!LO:LB:g=original	!	!LO:LB:g=original	!	!	!	!
4G\	.	6_	8gg\L	.	8bb\L	.	4G\	-ce-	2G/	-ce-	.	2d\	-ce-	2bb\	-ce-	.	1r	1r
.	.	.	8ff#\	.	8aa\	.	.	.	.	.	.	.	.	.	.	.	.	.
4D\	.	X	8gg\	.	8bb\	.	4D\	.	.	.	.	.	.	.	.	.	.	.
.	.	.	8aa\J	.	8ddd\J	.	.	.	.	.	.	.	.	.	.	.	.	.
4F#\	.	6	2ff#\	.	2aa\	.	4F#\	.	2F#/	-do	.	2d\	-do	2aa\	-do	.	.	.
4D\	.	.	.	.	.	.	4D\	-do	.	.	.	.	.	.	.	.	.	.
=7	=7	=7	=7	=7	=7	=7	=7	=7	=7	=7	=7	=7	=7	=7	=7	=7	=7	=7
!	!	!	!LO:LB:g=original	!	!	!	!LO:LB:g=original	!	!	!	!	!	!	!	!	!	!	!
4E\	.	.	4ee\	.	4gg\	.	4E\	et	4e\	et	.	4a\	et	4gg\	et	.	1r	1r
4AA/	.	.	4ee\	.	4gg\	.	4AA/	Spes	4e\	Spes	.	4a\	Spes	4gg\	Spes	.	.	.
2D\	.	.	4dd\	.	4ff#\	.	4D\	nos-	4d\	nos-	.	4a\	nos-	4ff#\	nos-	.	.	.
.	.	.	4dd\	.	4ff#\	.	4D\	-tra	4d\	-tra	.	4a\	-tra	4ff#\	-tra	.	.	.
=8	=8	=8	=8	=8	=8	=8	=8	=8	=8	=8	=8	=8	=8	=8	=8	=8	=8	=8
!	!	!	!	!	!LO:LB:g=original	!	!	!	!	!	!	!	!	!	!	!	!	!LO:TX:i:t=Solo
2A\	.	.	2ddT\	.	2ff#t\	.	2A\	Sal-	2d\	Sal-	.	2a\	Sal-	2ff#\	Sal-	.	2dd\	2ff#\
2AA/	.	.	2cc#\	.	2ee\	.	2AA/	-ve	2c#\	-ve	.	2a\	-ve	2ee\	-ve	.	2a/	2ee\
=9	=9	=9	=9	=9	=9	=9	=9	=9	=9	=9	=9	=9	=9	=9	=9	=9	=9	=9
!LO:TX:a:i:t=Solo.	!	!	!LO:TX:a:i:t=Solo	!	!	!	!	!	!	!	!	!	!	!	!	!	!	!
!	!	!	!	!	!	!	!	!	!	!	!	!	!	!	!	!	!LO:TX:a:i:t=Solo	!
!	!	!	!	!	!	!LO:DY:b:t=pia&colon;	!	!	!	!	!	!	!	!	!	!	!	!
!	!LO:DY:b:t=piano.	!	!	!	!	!	!	!	!	!	!	!	!	!	!	!	!	!
4A|>\	p	.	4A|</	p	4a|</	p	1r	.	1r	.	.	1r	.	1r	.	.	4a/	4ee\
!	!	!	!	!	!	!	!	!	!	!	!	!	!	!	!	!	!LO:TX:t=P:problem:mixed beam	!
4r	.	.	4r	.	4r	.	.	.	.	.	.	.	.	.	.	.	8a/L	8ee\L
.	.	.	.	.	.	.	.	.	.	.	.	.	.	.	.	.	8dd\J	8ff#\J
2r	.	.	2r	.	2r	.	.	.	.	.	.	.	.	.	.	.	4ee\	4gg\
.	.	.	.	.	.	.	.	.	.	.	.	.	.	.	.	.	4dd\	4ff#\
=10	=10	=10	=10	=10	=10	=10	=10	=10	=10	=10	=10	=10	=10	=10	=10	=10	=10	=10
4A|>\	.	.	4A|</	.	4a|</	.	1r	.	1r	.	.	1r	.	1r	.	.	4dd\	4ff#\
4r	.	.	4r	.	4r	.	.	.	.	.	.	.	.	.	.	.	4a/	4ee\
2r	.	.	2r	.	2r	.	.	.	.	.	.	.	.	.	.	.	2a/	2ee\
=11	=11	=11	=11	=11	=11	=11	=11	=11	=11	=11	=11	=11	=11	=11	=11	=11	=11	=11
!	!	!	!	!	!	!	!	!	!	!	!	!	!	!	!	!	!LO:TX:a:t=1.	!
2A|>\	.	.	(8ee\L	f	(8gg\L	f	1r	.	1r	.	.	1r	.	1r	.	.	1r	1r
.	.	.	8dd\)	.	8ff#\)	.	.	.	.	.	.	.	.	.	.	.	.	.
.	.	.	(8dd\	.	(8ff#\	.	.	.	.	.	.	.	.	.	.	.	.	.
.	.	.	8cc#\J)	.	8ee\J)	.	.	.	.	.	.	.	.	.	.	.	.	.
2AA|</	.	.	2cc#\	.	2ee\	.	.	.	.	.	.	.	.	.	.	.	.	.
=12	=12	=12	=12	=12	=12	=12	=12	=12	=12	=12	=12	=12	=12	=12	=12	=12	=12	=12
!	!	!	!	!	!	!	!	!	!	!	!	!	!	!	!	!	!LO:LB:g=original	!LO:LB:g=original
4D|< 4AA|>/	.	.	4d|</	p	4dd 4d|>/	p	1r	.	1r	.	.	1r	.	1r	.	.	4dd\	4ff#\
4r	.	.	4r	.	4r	.	.	.	.	.	.	.	.	.	.	.	8dd\L	8ff#\L
.	.	.	.	.	.	.	.	.	.	.	.	.	.	.	.	.	8ee\J	8gg\J
2r	.	.	2r	.	2r	.	.	.	.	.	.	.	.	.	.	.	4ff#\	4aa\
.	.	.	.	.	.	.	.	.	.	.	.	.	.	.	.	.	4ee\	4gg\
=13	=13	=13	=13	=13	=13	=13	=13	=13	=13	=13	=13	=13	=13	=13	=13	=13	=13	=13
4D 4AA|</	.	.	4d|</	.	4d|</	.	1r	.	1r	.	.	1r	.	1r	.	.	4ee\	4gg\
4r	.	.	4r	.	4r	.	.	.	.	.	.	.	.	.	.	.	4dd\	4ff#\
2r	.	.	2r	.	2r	.	.	.	.	.	.	.	.	.	.	.	2dd\	2ff#\
=14	=14	=14	=14	=14	=14	=14	=14	=14	=14	=14	=14	=14	=14	=14	=14	=14	=14	=14
2D|>/	.	.	(8ff#\L	f	(8aa\L	f	1r	.	1r	.	.	1r	.	1r	.	.	1r	1r
.	.	.	8ee\)	.	8gg\)	.	.	.	.	.	.	.	.	.	.	.	.	.
.	.	.	(8ee\	.	(8gg\	.	.	.	.	.	.	.	.	.	.	.	.	.
.	.	.	8dd\J)	.	8ff#\J)	.	.	.	.	.	.	.	.	.	.	.	.	.
2d\	.	.	2dd\	.	2ff#\	.	.	.	.	.	.	.	.	.	.	.	.	.
=15	=15	=15	=15	=15	=15	=15	=15	=15	=15	=15	=15	=15	=15	=15	=15	=15	=15	=15
!LO:LB:g=original	!	!	!LO:TX:a:i:t=Solo	!	!	!	!	!	!	!	!	!	!	!	!	!	!	!
4D\	.	5 3	4d|</	p	4d|</	p	1r	.	1r	.	.	1r	.	1r	.	.	1r	8dd\L
.	.	.	.	.	.	.	.	.	.	.	.	.	.	.	.	.	.	8ff#\
4r	.	.	4r	.	4r	.	.	.	.	.	.	.	.	.	.	.	.	8ee\
.	.	.	.	.	.	.	.	.	.	.	.	.	.	.	.	.	.	8gg\J
2r	.	.	2r	.	2r	.	.	.	.	.	.	.	.	.	.	.	.	8ff#\L
.	.	.	.	.	.	.	.	.	.	.	.	.	.	.	.	.	.	8aa\
.	.	.	.	.	.	.	.	.	.	.	.	.	.	.	.	.	.	8gg\
.	.	.	.	.	.	.	.	.	.	.	.	.	.	.	.	.	.	8bb\J
=16	=16	=16	=16	=16	=16	=16	=16	=16	=16	=16	=16	=16	=16	=16	=16	=16	=16	=16
2A\	.	8 6	4ff#\	.	4aa\	.	1r	.	1r	.	.	1r	.	1r	.	.	4ff#\	4aa\
.	.	7 5	4ee\	.	4gg\	.	.	.	.	.	.	.	.	.	.	.	4ee\	4gg\
2AA/	.	6 4	4dd\	.	4ff#\	.	.	.	.	.	.	.	.	.	.	.	4dd\	4ff#\
.	.	5 3	4cc#\	.	4ee\	.	.	.	.	.	.	.	.	.	.	.	4a/	4ee\
=17	=17	=17	=17	=17	=17	=17	=17	=17	=17	=17	=17	=17	=17	=17	=17	=17	=17	=17
!	!	!	!LO:LB:g=original	!	!	!	!	!	!	!	!	!	!	!	!	!	!	!
4D\	.	.	4d|</	.	4dd 4d|>/	.	1r	.	1r	.	.	1r	.	1r	.	.	8f#/	8dd\L
.	.	.	.	.	.	.	.	.	.	.	.	.	.	.	.	.	8r	8ff#\
4r	.	.	4r	.	4r	.	.	.	.	.	.	.	.	.	.	.	4r	8ee\
.	.	.	.	.	.	.	.	.	.	.	.	.	.	.	.	.	.	8gg\J
2r	.	.	2r	.	2r	.	.	.	.	.	.	.	.	.	.	.	2r	8ff#\L
.	.	.	.	.	.	.	.	.	.	.	.	.	.	.	.	.	.	8aa\
.	.	.	.	.	.	.	.	.	.	.	.	.	.	.	.	.	.	8gg\
.	.	.	.	.	.	.	.	.	.	.	.	.	.	.	.	.	.	8bb\J
=18	=18	=18	=18	=18	=18	=18	=18	=18	=18	=18	=18	=18	=18	=18	=18	=18	=18	=18
!	!	!	!	!	!LO:LB:g=original	!	!	!	!	!	!	!	!	!	!	!	!	!
!	!	!	!LO:TX:t=P:problem:takt zapisany powtórką	!	!	!	!	!	!	!	!	!	!	!	!	!	!	!
4D\	.	.	4d|</	.	4d|</	.	1r	.	1r	.	.	1r	.	1r	.	.	1r	4aa\
4r	.	.	4r	.	4r	.	.	.	.	.	.	.	.	.	.	.	.	4bb\
2r	.	.	2r	.	2r	.	.	.	.	.	.	.	.	.	.	.	.	4ccc#\
.	.	.	.	.	.	.	.	.	.	.	.	.	.	.	.	.	.	4ddd\
=19	=19	=19	=19	=19	=19	=19	=19	=19	=19	=19	=19	=19	=19	=19	=19	=19	=19	=19
4r	.	.	4r	.	4r	.	1r	.	1r	.	.	1r	.	1r	.	.	1r	2aa\
4D\	.	.	4d/	.	4d/	.	.	.	.	.	.	.	.	.	.	.	.	.
4D\	.	.	4d/	.	4d/	.	.	.	.	.	.	.	.	.	.	.	.	8aa\L
.	.	.	.	.	.	.	.	.	.	.	.	.	.	.	.	.	.	8ff#\
4F#\	.	.	4f#/	.	4f#/	.	.	.	.	.	.	.	.	.	.	.	.	8ee\
.	.	.	.	.	.	.	.	.	.	.	.	.	.	.	.	.	.	8dd\J
=20	=20	=20	=20	=20	=20	=20	=20	=20	=20	=20	=20	=20	=20	=20	=20	=20	=20	=20
!	!	!	!	!	!	!	!	!	!	!	!	!	!	!	!	!	!LO:TX:a:i:t=Tutti.	!
2A\	.	4	2a/	.	2a/	.	1r	.	1r	.	.	1r	.	1r	.	.	1r	1eeT
2AA/	.	3	2A/	.	2A/	.	.	.	.	.	.	.	.	.	.	.	.	.
=21	=21	=21	=21	=21	=21	=21	=21	=21	=21	=21	=21	=21	=21	=21	=21	=21	=21	=21
!LO:TX:a:i:t=Tutti	!	!	!	!	!LO:TX:t=P:problem:mixed beam	!	!	!	!	!	!	!	!	!	!	!	!	!LO:TX:a:i:t=Tutti
4D\	.	.	8d/L	.	8d/L	f	2D\	ad	2d\	ad	.	2a\	ad	2ff#\	ad	.	2dd\	2ff#\
.	.	.	8a/	.	8ff#\	.	.	.	.	.	.	.	.	.	.	.	.	.
4D\	.	.	8a/	.	8ff#\	.	.	.	.	.	.	.	.	.	.	.	.	.
.	.	.	8a/J	.	8ff#\J	.	.	.	.	.	.	.	.	.	.	.	.	.
*	*	*	*tremolo	*	*tremolo	*	*	*	*	*	*	*	*	*	*	*	*	*
4D\	.	.	8a/L	.	8ff#\L	.	4D\	te	4d\	te	.	4a\	te	4ff#\	te	.	2r	2r
.	.	.	8a/	.	8ff#\	.	.	.	.	.	.	.	.	.	.	.	.	.
4D\	.	.	8a/	.	8ff#\	.	4D\	cla-	4d\	cla-	.	4a\	cla-	4ff#\	cla-	.	.	.
.	.	.	8a/J	.	8ff#\J	.	.	.	.	.	.	.	.	.	.	.	.	.
=22	=22	=22	=22	=22	=22	=22	=22	=22	=22	=22	=22	=22	=22	=22	=22	=22	=22	=22
!	!	!	!	!	!	!	!	!	!LO:LB:g=original	!	!	!	!	!	!	!	!	!
4d\	.	.	8a/L	.	8ff#\L	.	2d\	-ma-	2d\	-ma-	.	2a\	-ma-	2ff#\	-ma-	.	2dd\	2ff#\
.	.	.	8a/	.	8ff#\	.	.	.	.	.	.	.	.	.	.	.	.	.
4d\	.	.	8a/	.	8ff#\	.	.	.	.	.	.	.	.	.	.	.	.	.
.	.	.	8a/J	.	8ff#\J	.	.	.	.	.	.	.	.	.	.	.	.	.
4d\	.	.	8a/L	.	8ff#\L	.	2d\	-mus	2d\	-mus	.	2a\	-mus	2ff#\	-mus	.	2r	2r
.	.	.	8a/	.	8ff#\	.	.	.	.	.	.	.	.	.	.	.	.	.
4d\	.	.	8a/	.	8ff#\	.	.	.	.	.	.	.	.	.	.	.	.	.
.	.	.	8a/J	.	8ff#\J	.	.	.	.	.	.	.	.	.	.	.	.	.
*	*	*	*Xtremolo	*	*Xtremolo	*	*	*	*	*	*	*	*	*	*	*	*	*
=23	=23	=23	=23	=23	=23	=23	=23	=23	=23	=23	=23	=23	=23	=23	=23	=23	=23	=23
!	!	!	!	!	!LO:TX:t=P:problem:mixed beam	!	!	!	!	!	!	!	!	!	!	!	!	!LO:LB:g=original
2c#\	.	6_ 3	8cc#\L	.	8ee\L	.	2c#\	Ex-	2A\	Ex-	.	2a\	Ex-	2ee\	Ex-	.	2b/	2ee\
.	.	.	8a\	.	8a/	.	.	.	.	.	.	.	.	.	.	.	.	.
.	.	.	8cc#\	.	8ee\	.	.	.	.	.	.	.	.	.	.	.	.	.
.	.	.	8a\J	.	8a/J	.	.	.	.	.	.	.	.	.	.	.	.	.
!	!	!	!	!	!LO:TX:t=P:problem:mixed beam	!	!	!	!	!	!	!	!	!	!	!	!	!
2d\	.	x 3	8dd\L	.	8ff#\L	.	4d\	-u-	4A\	-u-	.	4a\	-u-	4ff#\	-u-	.	2dd\	2ff#\
.	.	.	8a\	.	8a/	.	.	.	.	.	.	.	.	.	.	.	.	.
.	.	.	8dd\	.	8ff#\	.	4d\	-les	4A\	-les	.	4a\	-les	4ff#\	-les	.	.	.
.	.	.	8a\J	.	8a/J	.	.	.	.	.	.	.	.	.	.	.	.	.
=24	=24	=24	=24	=24	=24	=24	=24	=24	=24	=24	=24	=24	=24	=24	=24	=24	=24	=24
!	!	!	!LO:TX:t=P:problem:mixed beam	!	!LO:TX:t=P:problem:mixed beam	!	!	!	!	!	!	!	!	!	!	!	!	!
!	!	!	!	!	!	!	!	!	!	!	!	!	!	!LO:LB:g=original	!	!	!	!
2e\	.	x 3	8ee\L	.	8gg\L	.	4e\	fi-	4A\	fi-	.	4a\	fi-	4gg\	fi-	.	2ee\	2gg\
.	.	.	8a/	.	8a/	.	.	.	.	.	.	.	.	.	.	.	.	.
.	.	.	8ee\	.	8gg\	.	4e\	-lij	4A\	-lij	.	4a\	-lij	4gg\	-lij	.	.	.
.	.	.	8a/J	.	8a/J	.	.	.	.	.	.	.	.	.	.	.	.	.
!	!	!	!	!	!LO:TX:t=P:problem:mixed beam	!	!	!	!	!	!	!	!	!	!	!	!	!
2c#\	.	X 3	8cc#\L	.	8ee\L	.	4c#\	E-	4A\	E-	.	4a\	E-	4ee\	E-	.	2a/	2ee\
.	.	.	8a\	.	8a/	.	.	.	.	.	.	.	.	.	.	.	.	.
.	.	.	8cc#\	.	8ee\	.	4c#\	-vae	4A\	-vae	.	4a\	-vae	4ee\	-vae,	.	.	.
.	.	.	8a\J	.	8a/J	.	.	.	.	.	.	.	.	.	.	.	.	.
=25	=25	=25	=25	=25	=25	=25	=25	=25	=25	=25	=25	=25	=25	=25	=25	=25	=25	=25
!	!	!	!	!	!LO:TX:t=P:problem:mixed beam	!	!	!	!	!	!	!	!	!	!	!	!	!
!	!	!	!	!	!	!	!	!	!	!	!	!LO:LB:g=original	!	!	!	!	!	!
!LO:LB:g=original	!	!	!LO:TX:t=P:problem:t. 25-28 zapisane powtórką	!	!LO:TX:t=P:problem:t. 25-28 zapisane powtórką	!	!	!	!	!	!	!	!	!	!	!	!	!
2d\	.	.	8d/L	.	8d/L	f	4d\	ad	4d\	ad	.	4a\	ad	4ff#\	ad	.	2dd\	2ff#\
.	.	.	8a/	.	8ff#\	.	.	.	.	.	.	.	.	.	.	.	.	.
.	.	.	8a/	.	8ff#\	.	4d\	te	4d\	te	.	4a\	te	4ff#\	te	.	.	.
.	.	.	8a/J	.	8ff#\J	.	.	.	.	.	.	.	.	.	.	.	.	.
*	*	*	*tremolo	*	*tremolo	*	*	*	*	*	*	*	*	*	*	*	*	*
2D/	.	.	8a/L	.	8ff#\L	.	4D/	Sus-	4d\	Sus-	.	4a\	Sus-	4ff#\	Sus-	.	2r	2r
.	.	.	8a/	.	8ff#\	.	.	.	.	.	.	.	.	.	.	.	.	.
.	.	.	8a/	.	8ff#\	.	4D/	-pi-	4d\	-pi-	.	4a\	-pi-	4ff#\	-pi-	.	.	.
.	.	.	8a/J	.	8ff#\J	.	.	.	.	.	.	.	.	.	.	.	.	.
=26	=26	=26	=26	=26	=26	=26	=26	=26	=26	=26	=26	=26	=26	=26	=26	=26	=26	=26
!	!	!	!	!	!	!	!LO:LB:g=original	!	!	!	!	!	!	!	!	!	!	!
2D/	.	.	8a/L	.	8ff#\L	.	2D\	-ra-	2d\	-ra-	.	2a\	-ra-	2ff#\	-ra-	.	2dd\	2ff#\
.	.	.	8a/	.	8ff#\	.	.	.	.	.	.	.	.	.	.	.	.	.
.	.	.	8a/	.	8ff#\	.	.	.	.	.	.	.	.	.	.	.	.	.
.	.	.	8a/J	.	8ff#\J	.	.	.	.	.	.	.	.	.	.	.	.	.
2D/	.	.	8a/L	.	8ff#\L	.	4D\	-mus	4d\	-mus	.	4a\	-mus	4ff#\	-mus	.	2r	2r
.	.	.	8a/	.	8ff#\	.	.	.	.	.	.	.	.	.	.	.	.	.
.	.	.	8a/	.	8ff#\	.	4D\	ge-	4d\	ge-	.	4a\	ge-	4ff#\	ge-	.	.	.
.	.	.	8a/J	.	8ff#\J	.	.	.	.	.	.	.	.	.	.	.	.	.
*	*	*	*Xtremolo	*	*Xtremolo	*	*	*	*	*	*	*	*	*	*	*	*	*
=27	=27	=27	=27	=27	=27	=27	=27	=27	=27	=27	=27	=27	=27	=27	=27	=27	=27	=27
!	!	!	!	!	!LO:TX:t=P:problem:mixed beam	!	!	!	!	!	!	!	!	!	!	!	!LO:LB:g=original	!
!	!	!	!	!	!	!	!	!	!LO:LB:g=original	!	!	!	!	!	!	!	!	!
2C#/	.	6_ 3	8cc#\L	.	8ee\L	.	2C#\	-men-	2A\	-men-	.	2a\	-men-	2ee\	-men-	.	2a/	2ee\
.	.	.	8a\	.	8a/	.	.	.	.	.	.	.	.	.	.	.	.	.
.	.	.	8cc#\	.	8ee\	.	.	.	.	.	.	.	.	.	.	.	.	.
.	.	.	8a\J	.	8a/J	.	.	.	.	.	.	.	.	.	.	.	.	.
!	!	!	!	!	!LO:TX:t=P:problem:mixed beam	!	!	!	!	!	!	!	!	!	!	!	!	!
2D/	.	x 3	8dd\L	.	8ff#\L	.	4D\	-tes	4A\	-tes	.	4a\	-tes	4ff#\	-tes	.	2dd\	2ff#\
.	.	.	8a\	.	8a/	.	.	.	.	.	.	.	.	.	.	.	.	.
.	.	.	8dd\	.	8ff#\	.	4D\	et	4A\	et	.	4a\	et	4ff#\	et	.	.	.
.	.	.	8a\J	.	8a/J	.	.	.	.	.	.	.	.	.	.	.	.	.
=28	=28	=28	=28	=28	=28	=28	=28	=28	=28	=28	=28	=28	=28	=28	=28	=28	=28	=28
!	!	!	!LO:TX:t=P:problem:mixed beam	!	!LO:TX:t=P:problem:mixed beam	!	!	!	!	!	!	!	!	!	!	!	!	!
2E/	.	x 3	8ee\L	.	8gg\L	.	2E\	flen-	2A\	flen-	.	2a\	flen-	2gg\	flen-	.	2ee\	2gg\
.	.	.	8a/	.	8a/	.	.	.	.	.	.	.	.	.	.	.	.	.
.	.	.	8ee\	.	8gg\	.	.	.	.	.	.	.	.	.	.	.	.	.
.	.	.	8a/J	.	8a/J	.	.	.	.	.	.	.	.	.	.	.	.	.
!	!	!	!	!	!LO:TX:t=P:problem:mixed beam	!	!	!	!	!	!	!	!	!	!	!	!	!
2C#/	.	X 3	8cc#\L	.	8ee\L	.	2C#/	-tes	2A\	-tes	.	2a\	-tes	2ee\	-tes	.	2a/	2ee\
.	.	.	8a\	.	8a/	.	.	.	.	.	.	.	.	.	.	.	.	.
.	.	.	8cc#\	.	8ee\	.	.	.	.	.	.	.	.	.	.	.	.	.
.	.	.	8a\J	.	8a/J	.	.	.	.	.	.	.	.	.	.	.	.	.
=29	=29	=29	=29	=29	=29	=29	=29	=29	=29	=29	=29	=29	=29	=29	=29	=29	=29	=29
*	*	*	*^	*	*	*	*	*	*	*	*	*	*	*	*	*	*	*
4D/	.	.	8ff#/L	8dd\L	.	4ff#\	.	2D\	in	2d\	in	.	2a\	in	2ff#\	in	.	2dd\	2ff#\
.	.	.	8ff#/	8dd\	.	.	.	.	.	.	.	.	.	.	.	.	.	.	.
4d\	.	.	8ff#/	8dd\	.	8ddd\L	.	.	.	.	.	.	.	.	.	.	.	.	.
.	.	.	8ff#/J	8dd\J	.	8ff#\J	.	.	.	.	.	.	.	.	.	.	.	.	.
*	*	*	*tremolo	*tremolo	*	*	*	*	*	*	*	*	*	*	*	*	*	*	*
!	!	!	!LO:LB:g=original	!LO:LB:g=original	!	!	!	!	!	!	!	!	!	!	!	!	!	!	!
4d\	.	.	8ff#/L	8dd\L	.	8ddd\L	.	2D\	hac	2d\	hac	.	2a\	hac	2ff#\	hac	.	2r	2r
.	.	.	8ff#/	8dd\	.	8ff#\	.	.	.	.	.	.	.	.	.	.	.	.	.
4d\	.	.	8ff#/	8dd\	.	8ddd\	.	.	.	.	.	.	.	.	.	.	.	.	.
.	.	.	8ff#/J	8dd\J	.	8ff#\J	.	.	.	.	.	.	.	.	.	.	.	.	.
=30	=30	=30	=30	=30	=30	=30	=30	=30	=30	=30	=30	=30	=30	=30	=30	=30	=30	=30	=30
4B\	.	.	8ff#/L	8dd\L	.	4ff#\	.	2B\	La-	2d\	La-	.	2b\	La-	2ff#\	La-	.	2dd\	2ff#\
.	.	.	8ff#/	8dd\	.	.	.	.	.	.	.	.	.	.	.	.	.	.	.
4B\	.	.	8ff#/	8dd\	.	8ddd\L	.	.	.	.	.	.	.	.	.	.	.	.	.
.	.	.	8ff#/J	8dd\J	.	8ff#\J	.	.	.	.	.	.	.	.	.	.	.	.	.
4B\	.	.	8ff#/L	8dd\L	.	8ddd\L	.	2B\	-chrÿ-	2d\	-chrÿ-	.	2b\	-chrÿ-	2ff#\	-chrÿ-	.	2r	2r
.	.	.	8ff#/	8dd\	.	8ff#\	.	.	.	.	.	.	.	.	.	.	.	.	.
4B\	.	.	8ff#/	8dd\	.	8ddd\	.	.	.	.	.	.	.	.	.	.	.	.	.
.	.	.	8ff#/J	8dd\J	.	8ff#\J	.	.	.	.	.	.	.	.	.	.	.	.	.
=31	=31	=31	=31	=31	=31	=31	=31	=31	=31	=31	=31	=31	=31	=31	=31	=31	=31	=31	=31
!	!	!	!	!	!	!	!	!	!	!	!	!	!LO:LB:g=original	!	!LO:LB:g=original	!	!	!	!
!LO:TX:i:t=P	!	!	!	!	!	!LO:LB:g=original	!	!	!	!	!	!	!	!	!	!	!	!	!
4G\	.	.	8ee/L	8dd\L	.	4ee\	.	1G	-ma-	2d\	-ma-	.	2b\	-ma-	2ee\	-ma-	.	1r	1r
.	.	.	8ee/	8dd\	.	.	.	.	.	.	.	.	.	.	.	.	.	.	.
4G\	.	.	8ee/	8dd\	.	8ddd\L	.	.	.	.	.	.	.	.	.	.	.	.	.
.	.	.	8ee/J	8dd\J	.	8ee\J	.	.	.	.	.	.	.	.	.	.	.	.	.
4G\	.	.	8ee/L	8dd\L	.	8ddd\L	.	.	.	2d\	-rum	.	2b\	-rum	2ee\	-rum	.	.	.
.	.	.	8ee/	8dd\	.	8ee\	.	.	.	.	.	.	.	.	.	.	.	.	.
4G\	.	.	8ee/	8dd\	.	8ddd\	.	.	.	.	.	.	.	.	.	.	.	.	.
.	.	.	8ee/J	8dd\J	.	8ee\J	.	.	.	.	.	.	.	.	.	.	.	.	.
=32	=32	=32	=32	=32	=32	=32	=32	=32	=32	=32	=32	=32	=32	=32	=32	=32	=32	=32	=32
4G#X\	.	#6/	8ffn/L	8dd\L	.	4ffn\	.	1G#X	rum	1d	Val-	.	1b	Val-	1ffn	Val-	.	1r	1r
.	.	.	8ffn/	8dd\	.	.	.	.	.	.	.	.	.	.	.	.	.	.	.
4G#\	.	.	8ffn/	8dd\	.	8ddd\L	.	.	.	.	.	.	.	.	.	.	.	.	.
.	.	.	8ffn/J	8dd\J	.	8gg\J	.	.	.	.	.	.	.	.	.	.	.	.	.
4G#\	.	.	8ff/L	8dd\L	.	8ddd\L	.	.	.	.	.	.	.	.	.	.	.	.	.
.	.	.	8ff/	8dd\	.	8ff\	.	.	.	.	.	.	.	.	.	.	.	.	.
4G#\	.	.	8ff/	8dd\	.	8ddd\	.	.	.	.	.	.	.	.	.	.	.	.	.
.	.	.	8ff/J	8dd\J	.	8ff\J	.	.	.	.	.	.	.	.	.	.	.	.	.
*	*	*	*Xtremolo	*Xtremolo	*	*	*	*	*	*	*	*	*	*	*	*	*	*	*
=33	=33	=33	=33	=33	=33	=33	=33	=33	=33	=33	=33	=33	=33	=33	=33	=33	=33	=33	=33
2A\	.	6 4	4ff#X/	4dd\	.	4ddd 4ff#X\	.	2A\	Val-	4d\	.	.	1a	-le	4ff#\	.	.	4r	4r
.	.	5 3	4ee/	4cc#\	.	4ccc# 4ee\	.	.	.	4c#\	.	.	.	.	4ee\	.	.	4a/	4ee\
2A\	.	.	2ee/	2cc#\	.	2ccc# 2ee\	.	2A\	-le	2c#\	-le	.	.	.	2ee\	-le	.	2a/	2ee\
*	*	*	*v	*v	*	*	*	*	*	*	*	*	*	*	*	*	*	*	*
=34	=34	=34	=34	=34	=34	=34	=34	=34	=34	=34	=34	=34	=34	=34	=34	=34	=34	=34
!LO:LB:g=original	!	!	!	!	!	!	!	!	!	!	!	!	!	!	!	!	!	!
.	.	.	.	.	8qqbb/	.	.	.	.	.	.	.	.	.	.	.	.	.
!	!	!	!	!	!	!	!	!	!LO:LB:g=original	!	!	!	!	!	!	!	!	!
2d\	.	4 2	2ee\	.	4bb\	.	2d\	in	4d\	in	.	2e\	in	2g#X\	in	.	1r	1r
.	.	.	.	.	8aa\L	.	.	.	4B\	.	.	.	.	.	.	.	.	.
.	.	.	.	.	8bb\J	.	.	.	.	.	.	.	.	.	.	.	.	.
2c#\	.	6	2ee\	.	4aa\	.	2c#\	hac	2c#\	hac	.	2e\	hac	2a\	hac	.	.	.
.	.	.	.	.	4aa\	.	.	.	.	.	.	.	.	.	.	.	.	.
=35	=35	=35	=35	=35	=35	=35	=35	=35	=35	=35	=35	=35	=35	=35	=35	=35	=35	=35
!	!	!	!	!	!	!	!LO:LB:g=original	!	!	!	!	!	!	!	!	!	!	!
2G#X\	.	6 5	8ccc#\L	.	8eee\L	.	2G#X\	La-	2B\	La-	.	2e\	La-	4dd\	Lach-	.	1r	1r
.	.	.	8bb\	.	8ddd\	.	.	.	.	.	.	.	.	.	.	.	.	.
.	.	.	8aa\	.	8ccc#\	.	.	.	.	.	.	.	.	4b\	.	.	.	.
.	.	.	8bb\J	.	8ddd\J	.	.	.	.	.	.	.	.	.	.	.	.	.
2A\	.	.	4aa\	.	4ccc#\	.	2A\	-chrÿ-	2A\	-chrÿ-	.	2e\	-chrÿ-	2cc#\	-rÿ-	.	.	.
.	.	.	4aa\	.	4ccc#\	.	.	.	.	.	.	.	.	.	.	.	.	.
=36	=36	=36	=36	=36	=36	=36	=36	=36	=36	=36	=36	=36	=36	=36	=36	=36	=36	=36
.	.	.	.	.	8qqbb/	.	.	.	.	.	.	.	.	.	.	.	.	.
2d\	.	4 2	2ee\	.	4bb\	.	2d\	-ma-	4d\	-ma-	.	2e\	-ma-	2g#X\	-ma-	.	1r	1r
.	.	.	.	.	8aa\L	.	.	.	4B\	.	.	.	.	.	.	.	.	.
.	.	.	.	.	8bb\J	.	.	.	.	.	.	.	.	.	.	.	.	.
2c#\	.	6	2ee\	.	4aa\	.	2c#\	-rum	2c#\	-rum	.	2e\	-rum	2a\	-rum	.	.	.
.	.	.	.	.	4aa\	.	.	.	.	.	.	.	.	.	.	.	.	.
=37	=37	=37	=37	=37	=37	=37	=37	=37	=37	=37	=37	=37	=37	=37	=37	=37	=37	=37
!	!	!	!LO:LB:g=original	!	!	!	!	!	!	!	!	!	!	!	!	!	!	!
2G#X\	.	6 5	8ccc#\L	.	8eee\L	.	2G#X\	Val-	2B\	Val-	.	1e	Val-	4dd\	Val-	.	1r	1r
.	.	.	8bb\	.	8ddd\	.	.	.	.	.	.	.	.	.	.	.	.	.
.	.	.	8aa\	.	8ccc#\	.	.	.	.	.	.	.	.	4b\	.	.	.	.
.	.	.	8bb\J	.	8ddd\J	.	.	.	.	.	.	.	.	.	.	.	.	.
2A\	.	.	4aa\	.	4ccc#\	.	2A\	-le	2A\	-le	.	.	.	2cc#\	-le	.	.	.
.	.	.	4aa\	.	4ee\	.	.	.	.	.	.	.	.	.	.	.	.	.
=38	=38	=38	=38	=38	=38	=38	=38	=38	=38	=38	=38	=38	=38	=38	=38	=38	=38	=38
*	*	*	*	*	*	*	*	*ij	*	*ij	*	*	*	*	*	*	*	*
!	!	!	!	!	!LO:LB:g=original	!	!	!	!	!	!	!	!	!	!	!	!	!
4d\	.	.	4dd\	.	4ff#\	.	2d\	Val-	1d	Val-	.	2a\	.	2ff#\	Val-	.	1r	1r
4d\	.	.	4dd\	.	4ff#\	.	.	.	.	.	.	.	.	.	.	.	.	.
4B\	.	#6/	4ee\	.	4gg#X\	.	2B\	.	.	.	.	2b\	.	2gg#X\	.	.	.	.
4B\	.	.	4ee\	.	4gg#\	.	.	.	.	.	.	.	.	.	.	.	.	.
=39	=39	=39	=39	=39	=39	=39	=39	=39	=39	=39	=39	=39	=39	=39	=39	=39	=39	=39
.	.	.	.	.	8qqbb/	.	.	.	.	.	.	.	.	.	.	.	.	.
4A\	.	.	4ee\	.	4aa\	.	4A\	-le	4e\	-le	.	4cc#\	-le	4aa\	.	.	1r	1r
*	*	*	*	*	*	*	*	*Xij	*	*Xij	*	*	*	*	*	*	*	*
4r	.	.	8ee\L	.	8gg#X\L	.	4r	.	4r	.	.	4r	.	8gg#X\L	.	.	.	.
.	.	.	8dd\J	.	8ff#\J	.	.	.	.	.	.	.	.	8ff#\J	.	.	.	.
4r	.	.	4cc#\	.	4ee\	.	4r	.	4r	.	.	4r	.	4ee\	.	.	.	.
4D\	.	.	4b\	.	4dd\	.	4D\	Val-	4f#\	Val-	.	4b\	Val-	4dd\	.	.	.	.
=40	=40	=40	=40	=40	=40	=40	=40	=40	=40	=40	=40	=40	=40	=40	=40	=40	=40	=40
*	*	*	*tremolo	*	*	*	*	*	*	*	*	*	*	*	*	*	*	*
!	!	!	!	!	!	!	!	!	!	!	!	!LO:LB:g=original	!	!LO:LB:g=original	!	!	!	!
4E\	.	6_ 4_	8cc#\L	.	8cc#\L	.	1E	.	2e\	.	.	2a\	.	2cc#\	.	.	2r	2r
.	.	.	8cc#\	.	8aa\	.	.	.	.	.	.	.	.	.	.	.	.	.
4E\	.	X X	8cc#\	.	8aa\	.	.	.	.	.	.	.	.	.	.	.	.	.
.	.	.	8cc#\J	.	8aa\J	.	.	.	.	.	.	.	.	.	.	.	.	.
4EE/	.	5_ #_	8b\L	.	8b\L	.	.	.	2e\	-le,	.	2g#X\	-le	2b\	-le,	.	4a/	4ee\
.	.	.	8b\	.	8gg#\	.	.	.	.	.	.	.	.	.	.	.	.	.
4EE/	.	.	8b\	.	8gg#\	.	.	.	.	.	.	.	.	.	.	.	4a/	4ee\
.	.	.	8b\J	.	8gg#\J	.	.	.	.	.	.	.	.	.	.	.	.	.
*	*	*	*Xtremolo	*	*	*	*	*	*	*	*	*	*	*	*	*	*	*
=41	=41	=41	=41	=41	=41	=41	=41	=41	=41	=41	=41	=41	=41	=41	=41	=41	=41	=41
4r	.	.	2c#/	.	2a/	.	4AA/	-le	2e\	E-	.	2c#\	E-	2a\	E-	.	2a/	2ee\
4A\	.	.	.	.	.	.	4A\	E-	.	.	.	.	.	.	.	.	.	.
4c#\	.	.	4c#/	.	4a/	.	4c#\	.	2e\	-ja	.	2c#\	-ja	2a\	-ja	.	2r	2r
4A\	.	.	4c#/	.	4a/	.	4A\	-ja	.	.	.	.	.	.	.	.	.	.
=42	=42	=42	=42	=42	=42	=42	=42	=42	=42	=42	=42	=42	=42	=42	=42	=42	=42	=42
!LO:LB:g=original	!	!	!	!	!	!	!	!	!	!	!	!	!	!	!	!	!	!
2e\	.	6 4	4c#/	.	4a/	.	2e\	er-	2e\	er-	.	4c#/	er-	4a\	er-	.	4r	4r
.	.	5 #	4B/	.	4g#X/	.	.	.	.	.	.	4B/	.	4g#X\	.	.	4ee\	4ee\
2E\	.	.	2B/	.	2g#/	.	2E\	-go	2E/	-go	.	2B/	-go	2g#\	-go	.	2ee\	2ee\
=43	=43	=43	=43	=43	=43	=43	=43	=43	=43	=43	=43	=43	=43	=43	=43	=43	=43	=43
!	!	!	!	!	!	!	!	!	!	!	!	!	!	!	!	!	!	!LO:LB:g=original
!	!	!	!	!	!	!	!	!	!LO:LB:g=original	!	!	!	!	!	!	!	!	!LO:TX:a:t=1.
4r	.	.	2b\	.	2dd\	.	4E\	Ad-	4G#X/	Ad-	.	4B/	Ad-	4dd\	ad-	.	1r	1r
4E\	.	7	.	.	.	.	4E\	-vo-	4G#/	-vo-	.	4b\	-vo-	4dd\	-vo-	.	.	.
4G#X\	.	.	4b\	.	4dd\	.	4G#X\	-ca-	4G#/	-ca-	.	4b\	-ca-	4dd\	-ca-	.	.	.
4E\	.	.	4b\	.	4dd\	.	4E\	-ta	4G#/	-ta	.	4b\	-ta	4dd\	-ta	.	.	.
=44	=44	=44	=44	=44	=44	=44	=44	=44	=44	=44	=44	=44	=44	=44	=44	=44	=44	=44
!	!	!	!	!	!	!	!LO:LB:g=original	!	!	!	!	!	!	!	!	!	!	!
2A\	.	9	4b\	.	4dd\	.	2A\	nos-	2E/	nos-	.	2a\	nos-	4dd\	nos-	.	4r	4r
.	.	8	4a\	.	4cc#\	.	.	.	.	.	.	.	.	4cc#\	.	.	4a/	4ee\
2AA/	.	.	2a\	.	2cc#\	.	2A\	-tra	2E/	-tra	.	2a\	-tra	2cc#\	-tra	.	2a/	2ee\
=45	=45	=45	=45	=45	=45	=45	=45	=45	=45	=45	=45	=45	=45	=45	=45	=45	=45	=45
1A	.	.	4cc#\	.	4ee\	.	2A\	il-	2c#\	il-	.	2a\	il-	2ee\	il-	.	1r	1r
.	.	.	8dd\L	.	8ff#\L	.	.	.	.	.	.	.	.	.	.	.	.	.
.	.	.	8cc#\J	.	8ee\J	.	.	.	.	.	.	.	.	.	.	.	.	.
.	.	.	8b\L	.	8dd\L	.	2A\	-los	2c#\	-los	.	2a\	-los	2ee\	-los	.	.	.
.	.	.	8a\	.	8cc#\	.	.	.	.	.	.	.	.	.	.	.	.	.
.	.	.	8b\	.	8b\	.	.	.	.	.	.	.	.	.	.	.	.	.
.	.	.	8cc#\J	.	8a\J	.	.	.	.	.	.	.	.	.	.	.	.	.
=46	=46	=46	=46	=46	=46	=46	=46	=46	=46	=46	=46	=46	=46	=46	=46	=46	=46	=46
!	!	!	!LO:LB:g=original	!	!LO:LB:g=original	!	!	!	!	!	!	!	!	!	!	!	!	!
2d\	.	.	4dd\	.	8ff#\L	.	2d\	tu-	2d\	tu-	.	2a\	tu-	2ff#\	tu-	.	1r	1r
.	.	.	.	.	8ee\	.	.	.	.	.	.	.	.	.	.	.	.	.
.	.	.	8dd\L	.	8ff#\	.	.	.	.	.	.	.	.	.	.	.	.	.
.	.	.	8ff#\J	.	8aa\J	.	.	.	.	.	.	.	.	.	.	.	.	.
2c#\	.	6	2cc#\	.	2ee\	.	4c#\	-os	4e\	-os	.	4a\	-os	4ee\	-os	.	.	.
.	.	.	.	.	.	.	4c#\	mi-	4e\	mi-	.	4a\	mi-	4ee\	mi-	.	.	.
=47	=47	=47	=47	=47	=47	=47	=47	=47	=47	=47	=47	=47	=47	=47	=47	=47	=47	=47
!	!	!	!	!	!	!	!	!	!	!	!	!LO:LB:g=original	!	!	!	!	!	!
2G#X\	.	.	4b\	.	8dd\L	.	4G#X\	-se-	4e\	-se-	.	4b\	-se-	4dd\	-se-	.	1r	1r
.	.	.	.	.	8ee\	.	.	.	.	.	.	.	.	.	.	.	.	.
.	.	.	4b\	.	8dd\	.	4G#\	-ri-	4e\	-ri-	.	4b\	-ri-	4dd\	-ri-	.	.	.
.	.	.	.	.	8b\J	.	.	.	.	.	.	.	.	.	.	.	.	.
4A\	.	.	4a\	.	8cc#\L	.	4A\	-cor-	4e\	-cor-	.	4a\	-cor-	4cc#\	-cor-	.	.	.
.	.	.	.	.	8dd\	.	.	.	.	.	.	.	.	.	.	.	.	.
4A\	.	.	4a\	.	8cc#\	.	4A\	-des	4e\	-des	.	4a\	-des	4cc#\	-des	.	.	.
.	.	.	.	.	8a\J	.	.	.	.	.	.	.	.	.	.	.	.	.
=48	=48	=48	=48	=48	=48	=48	=48	=48	=48	=48	=48	=48	=48	=48	=48	=48	=48	=48
!	!	!	!	!	!	!	!	!	!	!	!	!	!	!	!	!	!LO:LB:g=original	!
!	!	!	!	!	!	!	!	!	!LO:LB:g=original	!	!	!	!	!LO:LB:g=original	!	!	!	!
2E\	.	6 4	4a/	.	4cc#\	.	4E\	o-	4.e\	O-	.	4a\	O-	4cc#\	o-	.	4r	4r
.	.	5 #	4g#X/	.	4b\	.	4E\	-cu-	.	.	.	4g#X\	-cu-	4b\	-cu-	.	8ee\L	8ee\L
.	.	.	.	.	.	.	.	.	8e\	-cu-	.	.	.	.	.	.	8ee\J	8ee\J
2EE/	.	.	2g#/	.	2b\	.	2E\	-los	2e\	-los	.	2g#\	-los	2b\	-los	.	2ee\	2ee\
=49	=49	=49	=49	=49	=49	=49	=49	=49	=49	=49	=49	=49	=49	=49	=49	=49	=49	=49
2AA/	.	.	(8a\L	.	(8cc#\L	.	1A	ad	1e	ad	.	1a	ad	1cc#	ad	.	[1ee	[1ee
.	.	.	8b\	.	8dd\	.	.	.	.	.	.	.	.	.	.	.	.	.
.	.	.	8cc#\	.	8ee\	.	.	.	.	.	.	.	.	.	.	.	.	.
.	.	.	8dd\J)	.	8ff#\J)	.	.	.	.	.	.	.	.	.	.	.	.	.
2A\	.	.	4cc#|>\	.	4ee|>\	.	.	.	.	.	.	.	.	.	.	.	.	.
.	.	.	4cc#|>\	.	4ee|>\	.	.	.	.	.	.	.	.	.	.	.	.	.
=50	=50	=50	=50	=50	=50	=50	=50	=50	=50	=50	=50	=50	=50	=50	=50	=50	=50	=50
2G#X\	.	.	(8g#X\L	.	(8b\L	.	2G#X\	nos	2e\	nos	.	2b\	nos	2dd\	nos	.	1ee_	1ee_
.	.	.	8a\	.	8cc#\	.	.	.	.	.	.	.	.	.	.	.	.	.
.	.	.	8b\	.	8dd\	.	.	.	.	.	.	.	.	.	.	.	.	.
.	.	.	8cc#\J)	.	8ee\J)	.	.	.	.	.	.	.	.	.	.	.	.	.
*	*	*	*	*	*	*	*	*ij	*	*	*	*	*	*	*	*	*	*
2E\	.	.	4b|>\	.	4dd|>\	.	2E\	ad	2e\	con-	.	2b\	con-	2dd\	con-	.	.	.
.	.	.	4b|>\	.	4dd|>\	.	.	.	.	.	.	.	.	.	.	.	.	.
=51	=51	=51	=51	=51	=51	=51	=51	=51	=51	=51	=51	=51	=51	=51	=51	=51	=51	=51
!LO:LB:g=original	!	!	!	!	!	!	!	!	!	!	!	!	!	!	!	!	!	!
2A\	.	.	(8a\L	.	(8cc#\L	.	2A\	nos	1e	-ver-	.	1a	-ver-	1cc#	-ver-	.	1ee_	1ee_
.	.	.	8b\	.	8dd\	.	.	.	.	.	.	.	.	.	.	.	.	.
.	.	.	8cc#\	.	8ee\	.	.	.	.	.	.	.	.	.	.	.	.	.
.	.	.	8dd\J)	.	8ff#\J)	.	.	.	.	.	.	.	.	.	.	.	.	.
*	*	*	*	*	*	*	*	*Xij	*	*	*	*	*	*	*	*	*	*
2A\	.	.	4cc#|>\	.	4ee|>\	.	2A\	con-	.	.	.	.	.	.	.	.	.	.
.	.	.	4cc#|>\	.	4ee|>\	.	.	.	.	.	.	.	.	.	.	.	.	.
=52	=52	=52	=52	=52	=52	=52	=52	=52	=52	=52	=52	=52	=52	=52	=52	=52	=52	=52
2G#X\	.	.	(8g#X\L	.	(8b\L	.	2G#X\	-ver-	1e	-te	.	1b	-te	1dd	-te	.	1ee]	1ee]
.	.	.	8a\	.	8cc#\	.	.	.	.	.	.	.	.	.	.	.	.	.
.	.	.	8b\	.	8dd\	.	.	.	.	.	.	.	.	.	.	.	.	.
.	.	.	8cc#\J)	.	8ee\J)	.	.	.	.	.	.	.	.	.	.	.	.	.
2E\	.	.	4b|>\	.	4dd|>\	.	4E\	-te	.	.	.	.	.	.	.	.	.	.
.	.	.	4b|>\	.	4dd|>\	.	4E\	et	.	.	.	.	.	.	.	.	.	.
=53	=53	=53	=53	=53	=53	=53	=53	=53	=53	=53	=53	=53	=53	=53	=53	=53	=53	=53
!	!	!	!	!	!	!	!LO:LB:g=original	!	!	!	!	!	!	!	!	!	!	!
4A\	.	5	2a\	.	(8cc#\L	.	4A\	Je-	4e\	et	.	2a\	et	4cc#\	et	.	1r	1r
.	.	.	.	.	8ee\	.	.	.	.	.	.	.	.	.	.	.	.	.
4A\	.	6 4	.	.	8dd\	.	4A\	-sum	4f#\	.	.	.	.	4dd\	Je-	.	.	.
.	.	.	.	.	8ff#\J)	.	.	.	.	.	.	.	.	.	.	.	.	.
4A\	.	5 3	2cc#\	.	4ee|>\	.	4A\	be-	4c#\	Je-	.	4a\	Je-	4ee\	.	.	.	.
4C#/	.	6	.	.	4aa|>\	.	4C#/	-ne	4A\	-sum	.	4a\	-sum	4ee\	-sum	.	.	.
=54	=54	=54	=54	=54	=54	=54	=54	=54	=54	=54	=54	=54	=54	=54	=54	=54	=54	=54
!	!	!	!	!	!LO:LB:g=original	!	!	!	!	!	!	!	!	!	!	!	!	!
4r	.	.	2cc#\	.	2ee\	.	4E\	dic-	4G#X/	be-	.	4b\	be-	4dd\	be-	.	1r	1r
4E\	.	7	.	.	.	.	4E\	-tum	4G#/	-ne-	.	4b\	-ne-	4dd\	-ne-	.	.	.
4F#\	.	.	2b\	.	2dd\	.	4F#\	fruc-	4E/	-dic-	.	4b\	-dic-	4dd\	-dic-	.	.	.
4G#X\	.	.	.	.	.	.	4G#X\	-tum	4E/	-tum	.	4b\	-tum	4dd\	-tum	.	.	.
=55	=55	=55	=55	=55	=55	=55	=55	=55	=55	=55	=55	=55	=55	=55	=55	=55	=55	=55
!	!	!	!LO:LB:g=original	!	!	!	!	!	!LO:LB:g=original	!	!	!	!	!	!	!	!	!
4A\	.	.	4a\	.	4cc#\	.	4A\	Ven-	4A\	fruc-	.	4e\	fruc-	4cc#\	fruc-	.	2r	2r
4C#/	.	6	4cc#\	.	4aa\	.	4C#/	-tris	4e\	-tum	.	4a\	-tum	4cc#\	-tum	.	.	.
4D\	.	6 5	2b\	.	4b\	.	4D/	tu-	4f#\	Ven-	.	4a\	Ven-	4b\	Ven-	.	4r	4r
4E\	.	#	.	.	4gg#X\	.	4E/	.	4e\	-tris	.	4g#X\	-tris	4b\	-tris	.	4ee\	4ee\
=56	=56	=56	=56	=56	=56	=56	=56	=56	=56	=56	=56	=56	=56	=56	=56	=56	=56	=56
4AA/	.	.	4cc#\	.	4aa\	.	4AA/	-i	4e\	tu-	.	4a\	tu-	4cc#\	tu-	.	4a/	4ee\
4r	.	.	4r	.	8a/L	.	4r	.	4e\	-i	.	4a\	-i	4cc#\	-i	.	4r	4r
.	.	.	.	.	8b/J	.	.	.	.	.	.	.	.	.	.	.	.	.
.	.	.	8qf#/	.	8qdd/	.	.	.	.	.	.	.	.	.	.	.	.	.
4Gn\	.	4 2	4e/	.	4cc#\	.	2Gn\	no-	2e\	no-	.	2a\	no-	2cc#\	no-	.	2r	2r
4G\	.	.	8d/L	.	8b\L	.	.	.	.	.	.	.	.	.	.	.	.	.
.	.	.	8e/J	.	8cc#\J	.	.	.	.	.	.	.	.	.	.	.	.	.
=57	=57	=57	=57	=57	=57	=57	=57	=57	=57	=57	=57	=57	=57	=57	=57	=57	=57	=57
!	!	!	!	!	!	!	!	!	!	!	!	!	!	!LO:LB:g=original	!	!	!	!
!	!	!	!	!	!	!	!	!	!	!	!	!	!	!LO:TX:a:t=d	!	!	!	!
.	.	.	8qg/	.	.	.	.	.	.	.	.	.	.	.	.	.	.	.
4F#\	.	6	4f#/	.	2dd\	.	2F#\	-bis	2A\	-bis,	.	2f#\	-bis	2dd\	-bis,	.	1r	1r
4F#\	.	.	8e/L	.	.	.	.	.	.	.	.	.	.	.	.	.	.	.
.	.	.	8f#/J	.	.	.	.	.	.	.	.	.	.	.	.	.	.	.
.	.	.	.	.	8qff#/	.	.	.	.	.	.	.	.	8qqee/	.	.	.	.
4C#/	.	.	4a/	.	4ee\	.	2C#\	post	4c#\	post	.	2a\	post	4ee\	post	.	.	.
4C#/	.	.	4a/	.	8dd\L	.	.	.	4e\	.	.	.	.	8dd\L	.	.	.	.
.	.	.	.	.	8ee\J	.	.	.	.	.	.	.	.	8ee\J	.	.	.	.
=58	=58	=58	=58	=58	=58	=58	=58	=58	=58	=58	=58	=58	=58	=58	=58	=58	=58	=58
.	.	.	8qee/	.	.	.	.	.	.	.	.	.	.	.	.	.	.	.
4D\	.	.	4dd\	.	2ff#\	.	2D\	hoc	2d\	hoc	.	2a\	hoc	2ff#\	hoc	.	1r	1r
4D\	.	.	8cc#\L	.	.	.	.	.	.	.	.	.	.	.	.	.	.	.
.	.	.	8dd\J	.	.	.	.	.	.	.	.	.	.	.	.	.	.	.
.	.	.	8qff#/	.	8qgg/	.	.	.	.	.	.	.	.	8qqgg/	.	.	.	.
4E\	.	.	4ee\	.	4ggn\	.	2E\	Ex-	2c#\	Ex-	.	4e\	Ex-	4gg\	Ex-	.	.	.
4E\	.	.	8dd\L	.	8ff#\L	.	.	.	.	.	.	4g\	.	8ff#\L	.	.	.	.
.	.	.	8ee\J	.	8gg\J	.	.	.	.	.	.	.	.	8gg\J	.	.	.	.
=59	=59	=59	=59	=59	=59	=59	=59	=59	=59	=59	=59	=59	=59	=59	=59	=59	=59	=59
!LO:LB:g=original	!	!	!	!	!	!	!	!	!	!	!	!	!	!	!	!	!LO:TX:a:i:t=Solo.	!
4F#\	.	.	4ff#\	.	(4aa\	.	4F#\	-i-	4d\	-i-	.	4f#\	-i-	4aa\	-i-	.	1r	1r
4G\	.	.	4dd\	.	4bb\)	.	4A\	-li-	8g\L	-li-	.	4d\	-li-	4bb\	-li-	.	.	.
.	.	.	.	.	.	.	.	.	8f#\J	.	.	.	.	.	.	.	.	.
4C#/	.	.	4ee\	.	4gg|>\	.	4C#\	-um	4e\	-um	.	4a\	-um	4gg\	-um	.	.	.
!	!	!	!	!	!	!	!	!	!	!	!	!LO:TX:a:t=a	!	!	!	!	!	!
4D\	.	.	4dd\	.	4ff#|>\	.	4D\	o-	4d\	os-	.	4a\	os-	4ff#\	os-	.	.	.
=60	=60	=60	=60	=60	=60	=60	=60	=60	=60	=60	=60	=60	=60	=60	=60	=60	=60	=60
!	!	!	!	!	!	!	!LO:LB:g=original	!	!	!	!	!	!	!	!	!	!	!
2A\	.	6 4	4dd\	.	4ff#\	.	2A\	-sten-	4d\	-ten-	.	2a\	-ten-	4ff#\	-ten-	.	4r	4r
!	!	!	!	!	!	!	!	!	!	!	!	!	!	!	!	!	!	!LO:TX:a:i:t=Solo.
.	.	.	4cc#\	.	4ee\	.	.	.	4c#\	.	.	.	.	4ee\	.	.	4a/	4ee\
!	!	!	!	!	!LO:TX:a:i:t=Solo	!	!	!	!	!	!	!	!	!	!	!	!	!
2AA/	.	5 3	2cc#\	p	2ee\	p	2AA/	-de	2c#\	-de	.	2a\	-de	2ee\	-de	.	2a/	2ee\
=61	=61	=61	=61	=61	=61	=61	=61	=61	=61	=61	=61	=61	=61	=61	=61	=61	=61	=61
!LO:TX:a:i:t=Solo	!	!	!LO:TX:a:i:t=Solo	!	!	!	!	!	!LO:LB:g=original	!	!	!	!	!	!	!	!	!
4A|>\	p	.	4a 4A|</	.	4a|</	.	1r	.	1r	.	.	1r	.	1r	.	.	4a/	4ee\
4r	.	.	4r	.	4r	.	.	.	.	.	.	.	.	.	.	.	4ee\	4gg\
2r	.	.	2r	.	2r	.	.	.	.	.	.	.	.	.	.	.	4ee\	4gg\
.	.	.	.	.	.	.	.	.	.	.	.	.	.	.	.	.	4dd\	4ff#\
=62	=62	=62	=62	=62	=62	=62	=62	=62	=62	=62	=62	=62	=62	=62	=62	=62	=62	=62
!	!	!	!	!	!	!	!	!	!	!	!	!	!	!	!	!	!	!LO:LB:g=original
4A|>\	.	.	4a 4A|</	.	4a|</	.	1r	.	1r	.	.	1r	.	1r	.	.	4dd\	4ff#\
4r	.	.	4r	.	4r	.	.	.	.	.	.	.	.	.	.	.	4a/	4ee\
2r	.	.	2r	.	2r	.	.	.	.	.	.	.	.	.	.	.	2a/	2ee\
=63	=63	=63	=63	=63	=63	=63	=63	=63	=63	=63	=63	=63	=63	=63	=63	=63	=63	=63
!	!	!	!	!	!LO:LB:g=original	!	!	!	!	!	!	!	!	!	!	!	!	!
2A|>\	.	.	(8ee\L	f	(8gg\L	f	1r	.	1r	.	.	1r	.	1r	.	.	1r	1r
.	.	.	8dd\)	.	8ff#\)	.	.	.	.	.	.	.	.	.	.	.	.	.
.	.	.	(8dd\	.	(8ff#\	.	.	.	.	.	.	.	.	.	.	.	.	.
.	.	.	8cc#\J)	.	8ee\J)	.	.	.	.	.	.	.	.	.	.	.	.	.
2AA|</	.	.	2cc#\	.	2ee\	.	.	.	.	.	.	.	.	.	.	.	.	.
=64	=64	=64	=64	=64	=64	=64	=64	=64	=64	=64	=64	=64	=64	=64	=64	=64	=64	=64
!	!	!	!	!	!	!	!	!	!	!	!	!	!	!	!	!	!LO:LB:g=original	!
4D|>\	.	.	4dd 4d|</	p	4dd 4d|</	p	1r	.	1r	.	.	1r	.	1r	.	.	4dd\	4ff#\
4r	.	.	4r	.	4r	.	.	.	.	.	.	.	.	.	.	.	4ff#\	4aa\
2r	.	.	2r	.	2r	.	.	.	.	.	.	.	.	.	.	.	4ff#\	4aa\
.	.	.	.	.	.	.	.	.	.	.	.	.	.	.	.	.	4ee\	4gg\
=65	=65	=65	=65	=65	=65	=65	=65	=65	=65	=65	=65	=65	=65	=65	=65	=65	=65	=65
!	!	!	!LO:LB:g=original	!	!	!	!	!	!	!	!	!	!	!	!	!	!	!
4D|>\	.	.	4d|</	.	4d|</	.	1r	.	1r	.	.	1r	.	1r	.	.	4ee\	4gg\
4r	.	.	4r	.	4r	.	.	.	.	.	.	.	.	.	.	.	4dd\	4ff#\
2r	.	.	2r	.	2r	.	.	.	.	.	.	.	.	.	.	.	2dd\	2ff#\
=66	=66	=66	=66	=66	=66	=66	=66	=66	=66	=66	=66	=66	=66	=66	=66	=66	=66	=66
2d|>\	.	.	(8ff#\L	f	(8aa\L	f	1r	.	1r	.	.	1r	.	1r	.	.	1r	1r
.	.	.	8ee\)	.	8gg\)	.	.	.	.	.	.	.	.	.	.	.	.	.
.	.	.	(8ee\	.	(8gg\	.	.	.	.	.	.	.	.	.	.	.	.	.
.	.	.	8dd\J)	.	8ff#\J)	.	.	.	.	.	.	.	.	.	.	.	.	.
2D|>\	.	.	2dd|>\	.	2ff#\	.	.	.	.	.	.	.	.	.	.	.	.	.
=67	=67	=67	=67	=67	=67	=67	=67	=67	=67	=67	=67	=67	=67	=67	=67	=67	=67	=67
4D|>\	.	.	4d|</	p	4dd 4d|</	p	1r	.	1r	.	.	1r	.	1r	.	.	1r	4ff#\
4r	.	.	4r	.	4r	.	.	.	.	.	.	.	.	.	.	.	.	8aa\L
.	.	.	.	.	.	.	.	.	.	.	.	.	.	.	.	.	.	8ff#\J
2r	.	.	2r	.	2r	.	.	.	.	.	.	.	.	.	.	.	.	4dd\
.	.	.	.	.	.	.	.	.	.	.	.	.	.	.	.	.	.	4dd\
=68	=68	=68	=68	=68	=68	=68	=68	=68	=68	=68	=68	=68	=68	=68	=68	=68	=68	=68
!LO:LB:g=original	!	!	!	!	!	!	!	!	!	!	!	!	!	!	!	!	!	!
2A|>\	.	.	2a/	.	4ee\	.	1r	.	1r	.	.	1r	.	1r	.	.	4a/	4ee\
.	.	.	.	.	(8ee\L	.	.	.	.	.	.	.	.	.	.	.	4a/	8ee\L
.	.	.	.	.	8ff#\J)	.	.	.	.	.	.	.	.	.	.	.	.	8ff#\J
2D|>\	.	.	2f#/	.	4dd\	.	.	.	.	.	.	.	.	.	.	.	2f#/	2dd\
.	.	.	.	.	4d/	.	.	.	.	.	.	.	.	.	.	.	.	.
=69	=69	=69	=69	=69	=69	=69	=69	=69	=69	=69	=69	=69	=69	=69	=69	=69	=69	=69
4D|>\	.	.	4d/	.	4d|</	.	1r	.	1r	.	.	1r	.	1r	.	.	1r	4ff#\
4r	.	.	4r	.	4r	.	.	.	.	.	.	.	.	.	.	.	.	8aa\L
.	.	.	.	.	.	.	.	.	.	.	.	.	.	.	.	.	.	8ff#\J
2r	.	.	2r	.	2r	.	.	.	.	.	.	.	.	.	.	.	.	4dd\
.	.	.	.	.	.	.	.	.	.	.	.	.	.	.	.	.	.	4dd\
=70	=70	=70	=70	=70	=70	=70	=70	=70	=70	=70	=70	=70	=70	=70	=70	=70	=70	=70
*	*	*	*^	*	*	*	*	*	*	*	*	*	*	*	*	*	*	*
2A|>\	.	.	2a/	2ryy	.	(8ee\L	.	1r	.	1r	.	.	1r	.	1r	.	.	4a/	8ee\L
.	.	.	.	.	.	8dd\)	.	.	.	.	.	.	.	.	.	.	.	.	8dd\
.	.	.	.	.	.	(8ee\	.	.	.	.	.	.	.	.	.	.	.	4a/	8ee\
.	.	.	.	.	.	8ff#\J)	.	.	.	.	.	.	.	.	.	.	.	.	8ff#\J
2D|>\	.	.	2a/	2f#\	.	2dd\	.	.	.	.	.	.	.	.	.	.	.	2f#/	2dd\
*	*	*	*v	*v	*	*	*	*	*	*	*	*	*	*	*	*	*	*	*
=71	=71	=71	=71	=71	=71	=71	=71	=71	=71	=71	=71	=71	=71	=71	=71	=71	=71	=71
4D|>\	.	.	4d/	.	4d|</	.	1r	.	1r	.	.	1r	.	1r	.	.	1r	8ff#\L
.	.	.	.	.	.	.	.	.	.	.	.	.	.	.	.	.	.	8dd\
4r	.	.	4r	.	4r	.	.	.	.	.	.	.	.	.	.	.	.	8ee\
.	.	.	.	.	.	.	.	.	.	.	.	.	.	.	.	.	.	8ff#\J
2r	.	.	2r	.	2r	.	.	.	.	.	.	.	.	.	.	.	.	8gg\L
.	.	.	.	.	.	.	.	.	.	.	.	.	.	.	.	.	.	8aa\
.	.	.	.	.	.	.	.	.	.	.	.	.	.	.	.	.	.	8bb\
.	.	.	.	.	.	.	.	.	.	.	.	.	.	.	.	.	.	8ccc#\J
=72	=72	=72	=72	=72	=72	=72	=72	=72	=72	=72	=72	=72	=72	=72	=72	=72	=72	=72
!	!	!	!	!	!LO:LB:g=original	!	!	!	!	!	!	!	!	!	!	!	!	!
4D\	.	.	4d/	.	4d|</	.	1r	.	1r	.	.	1r	.	1r	.	.	1r	4ddd\
4r	.	.	4r	.	4r	.	.	.	.	.	.	.	.	.	.	.	.	8ccc#\L
.	.	.	.	.	.	.	.	.	.	.	.	.	.	.	.	.	.	8bb\J
2r	.	.	2r	.	2r	.	.	.	.	.	.	.	.	.	.	.	.	4aa\
.	.	.	.	.	.	.	.	.	.	.	.	.	.	.	.	.	.	4gg\
=73	=73	=73	=73	=73	=73	=73	=73	=73	=73	=73	=73	=73	=73	=73	=73	=73	=73	=73
!	!	!	!	!	!	!	!	!	!	!	!	!	!	!	!	!	!	!LO:LB:g=original
2A\	.	6 4	2r	.	2ff#\	.	1r	.	1r	.	.	1r	.	1r	.	.	2r	8ff#\L
.	.	.	.	.	.	.	.	.	.	.	.	.	.	.	.	.	.	8aa\
.	.	.	.	.	.	.	.	.	.	.	.	.	.	.	.	.	.	8ff#\
.	.	.	.	.	.	.	.	.	.	.	.	.	.	.	.	.	.	8dd\J
2AA/	.	5 3	2cc#\	.	2ee\	.	.	.	.	.	.	.	.	.	.	.	4a/	4ee\
.	.	.	.	.	.	.	.	.	.	.	.	.	.	.	.	.	4a/	8ee\L
.	.	.	.	.	.	.	.	.	.	.	.	.	.	.	.	.	.	8ff#\J
=74	=74	=74	=74	=74	=74	=74	=74	=74	=74	=74	=74	=74	=74	=74	=74	=74	=74	=74
!LO:TX:a:i:t=Tutti	!	!	!	!	!	!	!	!	!	!	!	!LO:LB:g=original	!	!	!	!	!LO:TX:a:i:t=Tutti	!LO:TX:a:i:t=Tutti
2d\	f	.	(8dd\L	f	(8ff#\L	f	1d	O	1d	O	.	1a	O,	1ff#	O	.	2f#/	2dd\
.	.	.	8ee\	.	8gg\	.	.	.	.	.	.	.	.	.	.	.	.	.
.	.	.	8ff#\	.	8aa\	.	.	.	.	.	.	.	.	.	.	.	.	.
.	.	.	8gg\J)	.	8bb\J)	.	.	.	.	.	.	.	.	.	.	.	.	.
2d\	.	.	4ff#|>\	.	4aa|>\	.	.	.	.	.	.	.	.	.	.	.	2dd\	2ff#\
.	.	.	4ff#|>\	.	4aa|>\	.	.	.	.	.	.	.	.	.	.	.	.	.
=75	=75	=75	=75	=75	=75	=75	=75	=75	=75	=75	=75	=75	=75	=75	=75	=75	=75	=75
!	!	!	!LO:LB:g=original	!	!	!	!	!	!	!	!	!	!	!	!	!	!	!
2c#\	.	6	(8cc#\L	.	(8ee\L	.	2c#\	Cle-	2e\	Cle-	.	2a\	Cle-	2ee\	Cle-	.	1a	1ee
.	.	.	8dd\	.	8ff#\	.	.	.	.	.	.	.	.	.	.	.	.	.
.	.	.	8ee\	.	8gg\	.	.	.	.	.	.	.	.	.	.	.	.	.
.	.	.	8ff#\J)	.	8aa\J)	.	.	.	.	.	.	.	.	.	.	.	.	.
2A\	.	.	4ee|>\	.	4gg|>\	.	2A\	-mens	2c#\	-mens	.	2a\	-mens	2ee\	-mens,	.	.	.
.	.	.	4ee|>\	.	4gg|>\	.	.	.	.	.	.	.	.	.	.	.	.	.
=76	=76	=76	=76	=76	=76	=76	=76	=76	=76	=76	=76	=76	=76	=76	=76	=76	=76	=76
.	.	.	.	.	.	.	.	.	.	.	.	.	.	.	.	.	8qqee/	.
2d\	.	.	(8dd\L	.	(8ff#\L	.	1d	o	1d	o	.	1a	o	1ff#	o	.	1dd	1ff#
.	.	.	8ee\	.	8gg\	.	.	.	.	.	.	.	.	.	.	.	.	.
.	.	.	8ff#\	.	8aa\	.	.	.	.	.	.	.	.	.	.	.	.	.
.	.	.	8gg\J)	.	8bb\J)	.	.	.	.	.	.	.	.	.	.	.	.	.
2D/	.	.	4ff#|>\	.	4aa|>\	.	.	.	.	.	.	.	.	.	.	.	.	.
.	.	.	4ff#|>\	.	4aa|>\	.	.	.	.	.	.	.	.	.	.	.	.	.
=77	=77	=77	=77	=77	=77	=77	=77	=77	=77	=77	=77	=77	=77	=77	=77	=77	=77	=77
!	!	!	!	!	!	!	!	!	!	!	!	!	!	!LO:LB:g=original	!	!	!	!
2C#/	.	6	(8cc#\L	.	(8ee\L	.	2c#\	pi-	2e\	pi-	.	2a\	pi-	2ee\	pi-	.	1a	1ee
.	.	.	8dd\	.	8ff#\	.	.	.	.	.	.	.	.	.	.	.	.	.
.	.	.	8ee\	.	8gg\	.	.	.	.	.	.	.	.	.	.	.	.	.
.	.	.	8ff#\J)	.	8aa\J)	.	.	.	.	.	.	.	.	.	.	.	.	.
2AA/	.	.	4ee|>\	.	4gg|>\	.	2A\	-a	2c#\	-a	.	2a\	-a	2ee\	-a	.	.	.
.	.	.	4ee|>\	.	4gg|>\	.	.	.	.	.	.	.	.	.	.	.	.	.
=78	=78	=78	=78	=78	=78	=78	=78	=78	=78	=78	=78	=78	=78	=78	=78	=78	=78	=78
!LO:LB:g=original	!	!	!LO:TX:t=P:problem:mixed beam	!	!LO:TX:t=P:problem:mixed beam	!	!	!	!	!	!	!	!	!	!	!	!	!
4D\	.	.	8ff#\L	.	8ff#\L	.	4D\	o :	2d\	o	.	4f#\	o :	2dd\	o	.	1r	1r
.	.	.	8f#/	.	8f#/	.	.	.	.	.	.	.	.	.	.	.	.	.
4E\	.	.	8gg\	.	8gg\	.	4E\	.	.	.	.	4g\	.	.	.	.	.	.
.	.	.	8g/J	.	8g/J	.	.	.	.	.	.	.	.	.	.	.	.	.
!	!	!	!LO:TX:t=P:problem:mixed beam	!	!LO:TX:t=P:problem:mixed beam	!	!	!	!	!	!	!	!	!	!	!	!	!
4F#\	.	.	8aa\L	.	8aa\L	.	4F#\	dul-	4d\	dul-	.	4a\	dul-	4dd\	dul-	.	.	.
.	.	.	8a/	.	8a/	.	.	.	.	.	.	.	.	.	.	.	.	.
4G\	.	.	8bb\	.	8bb\	.	4G\	-cis	4d\	-cis	.	4b\	-cis	4dd\	-cis	.	.	.
.	.	.	8b/J	.	8b/J	.	.	.	.	.	.	.	.	.	.	.	.	.
=79	=79	=79	=79	=79	=79	=79	=79	=79	=79	=79	=79	=79	=79	=79	=79	=79	=79	=79
*	*	*	*^	*	*	*	*	*	*	*	*	*	*	*	*	*	*	*
4A\	.	6_ 4_	8ff#/L	8dd\L	.	8ff#\L	.	2A\	Vir-	2d\	Vir-	.	2a\	Vir-	2ff#\	Vir-	.	1r	1r
.	.	.	8ff#/	8dd\	.	8ddd\	.	.	.	.	.	.	.	.	.	.	.	.	.
4A\	.	x x	8ff#/	8dd\	.	8ddd\	.	.	.	.	.	.	.	.	.	.	.	.	.
.	.	.	8ff#/J	8dd\J	.	8ff#\J	.	.	.	.	.	.	.	.	.	.	.	.	.
*	*	*	*tremolo	*tremolo	*	*	*	*	*	*	*	*	*	*	*	*	*	*	*
4A\	.	x x	8ff#/L	8dd\L	.	8ddd\L	.	4A\	-go	4d\	-go	.	4a\	-go	4ff#\	-go	.	.	.
.	.	.	8ff#/	8dd\	.	8ff#\	.	.	.	.	.	.	.	.	.	.	.	.	.
4A\	.	X X	8ff#/	8dd\	.	8ddd\	.	4A\	Ma-	4d\	Ma-	.	4a\	Ma-	4ff#\	Ma-	.	.	.
.	.	.	8ff#/J	8dd\J	.	8ff#\J	.	.	.	.	.	.	.	.	.	.	.	.	.
=80	=80	=80	=80	=80	=80	=80	=80	=80	=80	=80	=80	=80	=80	=80	=80	=80	=80	=80	=80
!	!	!	!	!	!	!LO:LB:g=original	!	!	!	!	!	!	!	!	!	!	!	!LO:LB:g=original	!
2A\	.	4	8ee/L	8dd\L	.	8ee\L	.	2A\	-ri-	2d\	-ri-	.	1a	-ri-	1ee	-ri-	.	2a/	2ee\
.	.	.	8ee/	8dd\	.	8ddd\	.	.	.	.	.	.	.	.	.	.	.	.	.
.	.	.	8ee/	8dd\	.	8ee|\	.	.	.	.	.	.	.	.	.	.	.	.	.
.	.	.	8ee/J	8dd\J	.	8ddd\J	.	.	.	.	.	.	.	.	.	.	.	.	.
2AA/	.	3	8ee/L	8cc#\L	.	8ccc#\L	.	2AA/	.	2c#\	.	.	.	.	.	.	.	2a/	2ee\
.	.	.	8ee/	8cc#\	.	8ee\	.	.	.	.	.	.	.	.	.	.	.	.	.
.	.	.	8ee/	8cc#\	.	8ccc#\	.	.	.	.	.	.	.	.	.	.	.	.	.
.	.	.	8ee/J	8cc#\J	.	8ee\J	.	.	.	.	.	.	.	.	.	.	.	.	.
*	*	*	*Xtremolo	*Xtremolo	*	*	*	*	*	*	*	*	*	*	*	*	*	*	*
=81	=81	=81	=81	=81	=81	=81	=81	=81	=81	=81	=81	=81	=81	=81	=81	=81	=81	=81	=81
2D\	.	.	2ff#/	2dd\	.	2ddd 2ff#\	.	2D\	-a.	2d\	-a.	.	2a\	-a.	2ff#\	-a.	.	2f#/	2dd\
2r	.	.	2r	2ryy	.	2r	.	2r	.	2r	.	.	2r	.	2r	.	.	2r	2r
*	*	*	*v	*v	*	*	*	*	*	*	*	*	*	*	*	*	*	*	*
==	==	==	==	==	==	==	==	==	==	==	==	==	==	==	==	==	==	==
*-	*-	*-	*-	*-	*-	*-	*-	*-	*-	*-	*-	*-	*-	*-	*-	*-	*-	*-
!!!system-decoration: [(g1)][(g2)][(g3)](s9)
!!!AIN: 1 alto 3 empty 1 organ 1 tenor 2 violn 1 vox
!!!ENC: Tomasz Grochalski
!!!END: 2020-08-28
!!!ENC: Kamil Watkowski
!!!END: 2021-10-29
!!!RDF**kern: > = above
!!!RDF**kern: < = below
!!!RDF**kern: | = vertical stroke
!!!RDF**dynam: f = for:
!!!RDF**dynam: p = po:
